assets/images/icons/src/share-alt.svg

<?xml version="1.0" encoding="utf-8"?>
<!-- Generated by IcoMoon.io -->
<!DOCTYPE svg PUBLIC "-//W3C//DTD SVG 1.1//EN" "http://www.w3.org/Graphics/SVG/1.1/DTD/svg11.dtd">
<svg version="1.1" xmlns="http://www.w3.org/2000/svg" xmlns:xlink="http://www.w3.org/1999/xlink" width="12" height="14" viewBox="0 0 12 14">
<path fill="#444444" d="M9.5 8q1.039 0 1.77 0.73t0.73 1.77-0.73 1.77-1.77 0.73-1.77-0.73-0.73-1.77q0-0.094 0.016-0.266l-2.812-1.406q-0.719 0.672-1.703 0.672-1.039 0-1.77-0.73t-0.73-1.77 0.73-1.77 1.77-0.73q0.984 0 1.703 0.672l2.812-1.406q-0.016-0.172-0.016-0.266 0-1.039 0.73-1.77t1.77-0.73 1.77 0.73 0.73 1.77-0.73 1.77-1.77 0.73q-0.984 0-1.703-0.672l-2.812 1.406q0.016 0.172 0.016 0.266t-0.016 0.266l2.812 1.406q0.719-0.672 1.703-0.672z"></path>
</svg>

<svg xmlns="http://www.w3.org/2000/svg" width="12" height="14" viewBox="0 0 12 14"><path fill="#444" d="M9.5 8q1.039 0 1.77.73T12 10.5t-.73 1.77T9.5 13t-1.77-.73T7 10.5q0-.094.016-.266L4.204 8.828q-.719.672-1.703.672-1.039 0-1.77-.73T.001 7t.73-1.77 1.77-.73q.984 0 1.703.672l2.812-1.406Q7 3.594 7 3.5q0-1.039.73-1.77T9.5 1t1.77.73T12 3.5t-.73 1.77T9.5 6q-.984 0-1.703-.672L4.985 6.734q.016.172.016.266t-.016.266l2.812 1.406Q8.516 8 9.5 8z"/></svg>
